X:104
T:Torn Petticoat, The
R:slide
H:See also reel #294, #570
Z:id:hn-slide-104
M:6/8
L:1/8
K:Ador
e2d | c2A BAG | A2G E2D | EFG A2B | c2d e2d |
c2A BAG | A2G E2D | EFG A2B | A3 :| A2B ||
|: c2d e2f | g2e d2g | e2a a2e | g2e d2B |
[1 c2d e2f | g2e d2g | e2a a2g | a3 A2B :|
[2 c2A BAG | A2G E2D | EFG A2B | A3 ||

